X:1
T:Double-Jeu
R:Schottische
Z:Dave Holland <dave@biff.org.uk>
M:2/4
L:1/8
K:C
G|AG BG|c>c cg|f>e df|e/f/e/d/ cG|AG BG|
c>c ce|d>c de|1c3:|2c3 d|:ee fd|e>d cg|
ag ge|f/g/f/e/ dg|ee fd|e>d cG|Ac ed|1c3 d:|2c3|]
